svg/media/repeat_fill.svg

<?xml version="1.0" encoding="UTF-8"?>
<svg width="24px" height="24px" viewBox="0 0 24 24" version="1.1" xmlns="http://www.w3.org/2000/svg" xmlns:xlink="http://www.w3.org/1999/xlink">
    <title>repeat_fill</title>
    <g id="Icon" stroke="none" stroke-width="1" fill="none" fill-rule="evenodd">
        <g id="Media" transform="translate(0.000000, -144.000000)" fill-rule="nonzero">
            <g id="repeat_fill" transform="translate(0.000000, 144.000000)">
                <path d="M0,0 L0,24 L24,24 L24,0 L0,0 Z M11.4065,23.2578 L11.4181,23.2595 L11.4891,23.295 L11.5081,23.2987 L11.5233,23.295 L11.5943,23.2595 C11.6042,23.2564 11.613,23.259 11.6179,23.2649 L11.622,23.2758 L11.6391,23.7031 L11.6341,23.7235 L11.6231,23.7357 L11.5195,23.8097 L11.5047,23.8136 L11.4929,23.8097 L11.3893,23.7357 L11.3767,23.7197 L11.3733,23.7031 L11.3904,23.2758 C11.3924,23.2657 11.399,23.2593 11.4065,23.2578 Z M11.1416,23.1453 L11.1555,23.1473 L11.3402,23.2397 L11.3501,23.2499 L11.3528,23.2611 L11.3349,23.6906 L11.3301,23.7034 L11.3216,23.7105 L11.1207,23.8032 C11.1086,23.8069 11.0978,23.803 11.0922,23.7952 L11.0882,23.7812 L11.1223,23.1665 C11.1247,23.1546 11.1326,23.147 11.1416,23.1453 Z M11.857,23.1473 C11.8668,23.1424 11.8778,23.1453 11.8844,23.1526 L11.8901,23.1665 L11.9242,23.7812 C11.9249,23.7927 11.9172,23.8019 11.9074,23.8046 L11.8917,23.8032 L11.6908,23.7105 L11.6814,23.7024 L11.6775,23.6906 L11.6596,23.2611 L11.6628,23.2485 L11.6722,23.2397 L11.857,23.1473 Z" id="MingCute"></path>
                <path d="M20,9.49998 C20.7796706,9.49998 21.4204457,10.0948212 21.4931332,10.8555284 L21.5,11 L21.5,15 C21.5,17.4142914 19.5987811,19.3844901 17.2118372,19.4951021 L17,19.5 L8.55967,19.5 L8.53937074,19.8123852 C8.53588778,19.8608444 8.53237667,19.9074667 8.52887,19.9522 C8.47252,20.6709 7.78015,21.1217 7.19802,20.8172 L6.88398562,20.6486359 L6.88398562,20.6486359 L6.5155425,20.4403125 C6.449945,20.4022469 6.38233828,20.3625008 6.31285125,20.3210623 L5.87439656,20.0520275 C5.79790391,20.0037719 5.71978875,19.9538 5.64018,19.9021 C5.38948125,19.7392375 5.15940937,19.5822531 4.95168352,19.4352602 L4.56653586,19.1558148 L4.56653586,19.1558148 L4.24403383,18.9103258 C4.19567375,18.8726469 4.15005125,18.8366875 4.10723,18.8026 C3.61812,18.4132 3.63726,17.608 4.15653,17.1968 L4.29294594,17.0899262 L4.29294594,17.0899262 L4.61261344,16.8477441 L4.61261344,16.8477441 L4.99282844,16.5729465 L4.99282844,16.5729465 L5.43131094,16.2718895 C5.50912031,16.2198781 5.5892625,16.1670375 5.67169,16.1135 C5.8364,16.006525 5.9944025,15.9070437 6.14469594,15.8149 L6.5714475,15.560325 L6.5714475,15.560325 L6.94593531,15.3488375 L6.94593531,15.3488375 L7.26215,15.1795 L7.26215,15.1795 C7.839,14.8788 8.46866,15.2638 8.52352,15.9354 L8.56228,16.5 L17,16.5 C17.7796706,16.5 18.4204457,15.9050879 18.4931332,15.1444558 L18.5,15 L18.5,11 C18.5,10.1715 19.1716,9.49998 20,9.49998 Z M16.802,3.18272 L17.1160422,3.35131063 L17.1160422,3.35131063 L17.4844875,3.5596475 C17.5500844,3.597715 17.6176898,3.63746297 17.6871748,3.67890359 L18.1256057,3.94795672 C18.2020922,3.99621672 18.2802,4.04619375 18.3598,4.0979 C18.610525,4.26073625 18.8406063,4.41770422 19.0483352,4.56468957 L19.4334836,4.84413105 L19.4334836,4.84413105 L19.7559883,5.08963785 C19.80435,5.12732141 19.849975,5.16328625 19.8928,5.19738 C20.3819,5.58679 20.3627,6.39196 19.8435,6.80318 L19.7070758,6.91004795 L19.7070758,6.91004795 L19.3873898,7.15220932 L19.3873898,7.15220932 L19.0071602,7.42698303 C18.8022906,7.57146531 18.575575,7.7257975 18.3283,7.88641 C18.1636,7.993395 18.0056,8.09288188 17.8553062,8.18502906 L17.42855,8.43961 L17.42855,8.43961 L17.0540687,8.65110344 L17.0540687,8.65110344 L16.7379,8.82046 L16.7379,8.82046 C16.161,9.12117 15.5313,8.73613 15.4765,8.0646 L15.4377,7.49998 L15.4377,7.49998 L7,7.49998 C6.17157,7.49998 5.5,8.17155 5.5,8.99998 L5.5,13 C5.5,13.8284 4.82843,14.5 4,14.5 C3.17157,14.5 2.5,13.8284 2.5,13 L2.5,8.99998 C2.5,6.5147 4.51472,4.49998 7,4.49998 L15.4403,4.49998 L15.4711,4.04777 L15.4711,4.04777 C15.5275,3.32901 16.2199,2.8783 16.802,3.18272 Z" id="形状" fill="#09244B"></path>
            </g>
        </g>
    </g>
</svg>

<svg xmlns="http://www.w3.org/2000/svg" width="24" height="24"><g fill="none" fill-rule="nonzero"><path d="M0 0v24h24V0H0Zm11.407 23.258.011.002.071.035.02.004.014-.004.071-.036c.01-.003.019 0 .024.006l.004.01.017.428-.005.02-.01.013-.104.074-.015.004-.012-.004-.104-.074-.012-.016-.004-.017.017-.427c.002-.01.009-.017.016-.018Zm-.265-.113.014.002.184.093.01.01.003.011-.018.43-.005.012-.008.008-.201.092c-.012.004-.023 0-.029-.008l-.004-.014.034-.614c.003-.012.01-.02.02-.022Zm.715.002a.023.023 0 0 1 .027.006l.006.014.034.614c0 .012-.007.02-.017.024l-.015-.002-.201-.093-.01-.008-.003-.011-.018-.43.003-.012.01-.01.184-.092Z"/><path fill="#09244B" d="M20 9.5a1.5 1.5 0 0 1 1.493 1.356L21.5 11v4a4.5 4.5 0 0 1-4.288 4.495L17 19.5H8.56l-.02.312a21.64 21.64 0 0 1-.011.14c-.056.719-.749 1.17-1.331.865l-.314-.168-.368-.209a19.716 19.716 0 0 1-.203-.119l-.439-.269a21.11 21.11 0 0 1-.922-.617l-.385-.28-.323-.245a16.69 16.69 0 0 1-.137-.107c-.489-.39-.47-1.195.05-1.606l.136-.107.32-.242.38-.275.438-.301a21.806 21.806 0 0 1 .714-.457l.426-.255.375-.211.316-.17c.577-.3 1.207.085 1.262.756l.038.565H17a1.5 1.5 0 0 0 1.493-1.356L18.5 15v-4A1.5 1.5 0 0 1 20 9.5Zm-3.198-6.317.314.168.368.209c.066.038.134.077.203.119l.439.269a21.065 21.065 0 0 1 .922.617l.385.28.323.245.137.107c.489.39.47 1.195-.05 1.606l-.136.107-.32.242-.38.275a21.485 21.485 0 0 1-1.152.758l-.426.255-.375.211-.316.17c-.577.3-1.207-.085-1.261-.756l-.04-.565H7A1.5 1.5 0 0 0 5.5 9v4a1.5 1.5 0 0 1-3 0V9A4.5 4.5 0 0 1 7 4.5h8.44l.031-.452c.056-.719.749-1.17 1.331-.865Z"/></g></svg>
